modules/feathericon/icons/bold.svg

<?xml version="1.0" encoding="UTF-8"?>
<svg width="10px" height="14px" viewBox="0 0 10 14" version="1.1" xmlns="http://www.w3.org/2000/svg" xmlns:xlink="http://www.w3.org/1999/xlink">
    <!-- Generator: sketchtool 48.1 (47250) - http://www.bohemiancoding.com/sketch -->
    <title>bold</title>
    <desc>Created with sketchtool.</desc>
    <defs></defs>
    <g id="text-edit" stroke="none" stroke-width="1" fill="none" fill-rule="evenodd">
        <g id="bold" fill="#000000">
            <path d="M0.999999999,14 C0.999999999,14 1.09428266e-08,14 2.62330262e-14,13 C-3.42834517e-09,13 -1.05713487e-08,1.00691569 -3.42834524e-09,1 C-1.05713488e-08,8.8817842e-16 0.956601202,8.8817842e-16 0.956601202,8.8817842e-16 L4.65485074,8.8817842e-16 C5.53793974,8.8817842e-16 6.29197448,0.0871360581 6.91697761,0.261410788 C7.54198073,0.435685519 8.0550353,0.684184647 8.45615671,1.00691563 C8.85727812,1.32964661 9.15111846,1.72014524 9.33768656,2.17842324 C9.52425466,2.63670123 9.61753731,3.15306306 9.61753731,3.7275242 C9.61753731,4.05670981 9.57089598,4.37136779 9.47761193,4.67150761 C9.38432789,4.97164742 9.23973978,5.25241916 9.04384328,5.51383126 C8.84794678,5.77524335 8.59919304,6.01244707 8.29757462,6.22544952 C7.9959562,6.43845196 7.636818,6.6191786 7.22014925,6.76763485 C9.07339234,7.20009437 9.99999999,8.23927254 9.99999999,9.88520055 C9.99999999,10.4790256 9.89117024,11.02766 9.67350746,11.5311203 C9.45584468,12.0345807 9.13868367,12.4686473 8.72201492,12.8333333 C8.30534617,13.1980193 7.7922916,13.483632 7.18283582,13.6901798 C6.57338003,13.8967276 5.87686959,14 5.09328358,14 L0.999999999,14 Z M2.50932836,7.86168741 L2.50932836,11.966805 L5.05597015,11.966805 C5.52239039,11.966805 5.91262281,11.9087143 6.2266791,11.7925311 C6.5407354,11.676348 6.79259855,11.5214394 6.98227612,11.3278008 C7.17195368,11.1341622 7.30876824,10.9082539 7.39272388,10.6500692 C7.47667952,10.3918844 7.51865672,10.1175672 7.51865672,9.82710927 C7.51865672,9.52374214 7.47201539,9.25103855 7.37873134,9.00899032 C7.28544729,8.76694208 7.13930448,8.56039735 6.94029851,8.38934993 C6.74129254,8.21830251 6.48631996,8.08759842 6.17537313,7.99723375 C5.86442631,7.90686907 5.48818629,7.86168741 5.04664179,7.86168741 L2.50932836,7.86168741 Z M2.50932836,6.06085754 L4.51492537,6.06085754 C5.36691968,6.06085754 6.01367938,5.89949447 6.45522388,5.57676349 C6.89676838,5.2540325 7.11753731,4.74089794 7.11753731,4.0373444 C7.11753731,3.30797238 6.91853433,2.78838329 6.52052239,2.47856155 C6.12251045,2.16873981 5.50062612,2.01383126 4.65485075,2.01383126 L2.50932836,2.01383126 L2.50932836,6.06085754 Z" id="Shape"></path>
        </g>
    </g>
</svg>

<svg width="10" height="14" viewBox="0 0 10 14" xmlns="http://www.w3.org/2000/svg"><path d="M1 14s-1 0-1-1V1c0-1 .957-1 .957-1h3.698c.883 0 1.637.087 2.262.261.625.175 1.138.423 1.54.746.4.323.694.713.88 1.171.187.459.28.975.28 1.55 0 .329-.046.643-.14.944-.093.3-.237.58-.433.842a3.3 3.3 0 0 1-.746.711c-.302.213-.661.394-1.078.543C9.073 7.2 10 8.239 10 9.885c0 .594-.109 1.143-.326 1.646a3.62 3.62 0 0 1-.952 1.302c-.417.365-.93.65-1.54.857-.609.207-1.305.31-2.089.31H1zm1.51-6.138v4.105h2.546c.466 0 .857-.058 1.17-.174.315-.117.567-.272.756-.465.19-.194.327-.42.41-.678.085-.258.127-.532.127-.823a2.26 2.26 0 0 0-.14-.818 1.532 1.532 0 0 0-.439-.62 2.022 2.022 0 0 0-.765-.392 4.086 4.086 0 0 0-1.128-.135H2.509zm0-1.801h2.005c.852 0 1.499-.162 1.94-.484.442-.323.663-.836.663-1.54 0-.729-.2-1.249-.597-1.558-.398-.31-1.02-.465-1.866-.465H2.509V6.06z" fill="#000" fill-rule="evenodd"/></svg>
